X:985
T:Dinky Dorian's
R:reel
C:Frankie Byrne
M:4/4
L:1/8
K:AMix
ed |\
c2 Bc ABcd| egfd edef |gB (3BBB gB aB | gB (3BBB gfed |
c2Bc ABcd | egfd edef |{a}gfge df ed | cd Bc A2 :|
ef |\
aA (3AAA aAbA | {b}aA (3AAA {b}agef |gB (3BBB gB aB | gB (3BBB gefg |
|[1 aA (3AAA aAbA | aA (3AAA agef |gfge dfed | cd Bc A2 :|
|[2 aA (3AAA gA (3AAA | fA (3AAA edef |gfge dfed |cd Bc A2||
